dist/img/svg/ball.svg

<svg width="31" height="30" viewBox="0 0 31 30" fill="none" xmlns="http://www.w3.org/2000/svg">
<path d="M15.96 0C12.9932 0 10.0931 0.879735 7.62641 2.52796C5.15967 4.17618 3.23709 6.51886 2.10177 9.25975C0.966459 12.0006 0.669411 15.0166 1.24819 17.9264C1.82697 20.8361 3.25557 23.5088 5.35336 25.6066C7.45115 27.7044 10.1239 29.133 13.0336 29.7118C15.9433 30.2906 18.9593 29.9935 21.7002 28.8582C24.4411 27.7229 26.7838 25.8003 28.432 23.3336C30.0802 20.8668 30.96 17.9667 30.96 15C30.96 11.0218 29.3796 7.20644 26.5666 4.3934C23.7535 1.58035 19.9382 0 15.96 0ZM26.16 23.32L22.66 23.08L19.66 18.86L20.99 14.75L25.68 13.06L29.1 15.14C29.0924 18.1172 28.0694 21.0028 26.2 23.32H26.16ZM26.57 7.21C26.57 7.21 26.51 7.21 26.5 7.3L25.09 11.36L20.34 13.07L16.84 10.5V5.26L20.2 2.59C22.7574 3.4411 24.9938 5.05301 26.61 7.21H26.57ZM11.76 2.54L15.06 5.25V10.59L11.61 13.09L6.75997 11.36L5.34997 7.3C6.94215 5.08783 9.18193 3.42459 11.76 2.54ZM9.50997 23.08L5.79996 23.33C3.87945 21.0077 2.81973 18.0935 2.79996 15.08L6.12996 13.08L10.96 14.8L12.35 19.07L9.50997 23.08ZM11.96 27.54L10.96 24.12L13.78 20.12H18.36L21.18 24.12L20.18 27.45C18.8109 27.9291 17.3705 28.1725 15.92 28.17C14.5755 28.1638 13.24 27.9514 11.96 27.54Z" fill="#601DC0"/>
</svg>

<svg width="31" height="30" viewBox="0 0 31 30" fill="none" xmlns="http://www.w3.org/2000/svg"><path d="M15.96 0a15 15 0 100 30 15 15 0 000-30zm10.2 23.32l-3.5-.24-3-4.22 1.33-4.11 4.69-1.69 3.42 2.08a13.08 13.08 0 01-2.9 8.18h-.04zm.41-16.11s-.06 0-.07.09l-1.41 4.06-4.75 1.71-3.5-2.57V5.26l3.36-2.67a13.23 13.23 0 016.41 4.62h-.04zM11.76 2.54l3.3 2.71v5.34l-3.45 2.5-4.85-1.73L5.35 7.3a13.16 13.16 0 016.41-4.76zM9.51 23.08l-3.71.25a13.08 13.08 0 01-3-8.25l3.33-2 4.83 1.72 1.39 4.27-2.84 4.01zm2.45 4.46l-1-3.42 2.82-4h4.58l2.82 4-1 3.33a12.8 12.8 0 01-4.26.72 13.14 13.14 0 01-3.96-.63z" fill="#601DC0"/></svg>
